assets/Pool 8 ball/Flat/pool_8_ball_flat.svg

<svg width="32" height="32" viewBox="0 0 32 32" fill="none" xmlns="http://www.w3.org/2000/svg">
<path d="M30 16C30 23.732 23.732 30 16 30C8.26801 30 2 23.732 2 16C2 8.26801 8.26801 2 16 2C23.732 2 30 8.26801 30 16Z" fill="#433B6B"/>
<path d="M23 16C23 19.866 19.866 23 16 23C12.134 23 9 19.866 9 16C9 12.134 12.134 9 16 9C19.866 9 23 12.134 23 16Z" fill="#E6E6E6"/>
<path d="M13.824 12.9592C13.499 13.4883 13.4997 14.111 13.5 14.466L13.5 14.5C13.5 15.0062 13.6616 15.5332 14.1072 15.9254C14.1417 15.9557 14.1774 15.9848 14.2144 16.0127C14.0574 16.1406 13.9279 16.2902 13.8241 16.4592C13.4991 16.9883 13.4997 17.611 13.5001 17.966L13.5001 18C13.5001 18.5062 13.6617 19.0332 14.1073 19.4254C14.5436 19.8092 15.1801 20 16.0001 20C16.7933 20 17.424 19.8066 17.8636 19.4296C18.3114 19.0455 18.5001 18.5229 18.5001 18L18.5002 17.9525C18.5007 17.5388 18.5015 16.9084 18.1706 16.3943C18.0694 16.2371 17.9452 16.1003 17.7969 15.9841C17.8196 15.9664 17.8418 15.9482 17.8635 15.9296C18.3113 15.5455 18.5 15.0229 18.5 14.5L18.5001 14.4525C18.5006 14.0388 18.5014 13.4084 18.1705 12.8943C17.7901 12.3036 17.0846 12 16 12C14.8907 12 14.1943 12.3565 13.824 12.9592ZM17.3322 14.25C17.3322 14.9404 16.8285 15.5 16.0001 15.5C15.1717 15.5 14.7001 14.9404 14.7001 14.25C14.7001 13.5596 15.1717 13 16.0001 13C16.8285 13 17.3322 13.5596 17.3322 14.25ZM17.3323 17.75C17.3323 18.4404 16.8286 19 16.0002 19C15.1718 19 14.7002 18.4404 14.7002 17.75C14.7002 17.0596 15.1718 16.5 16.0002 16.5C16.8286 16.5 17.3323 17.0596 17.3323 17.75Z" fill="#212121"/>
</svg>

<svg xmlns="http://www.w3.org/2000/svg" width="32" height="32" fill="none"><path fill="#433B6B" d="M30 16c0 7.732-6.268 14-14 14S2 23.732 2 16 8.268 2 16 2s14 6.268 14 14Z"/><path fill="#E6E6E6" d="M23 16a7 7 0 1 1-14 0 7 7 0 0 1 14 0Z"/><path fill="#212121" d="M13.824 12.96c-.325.528-.324 1.151-.324 1.506v.034c0 .506.162 1.033.607 1.425.035.03.07.06.107.088a1.76 1.76 0 0 0-.39.446c-.325.53-.324 1.152-.324 1.507V18c0 .506.162 1.033.607 1.425.437.384 1.073.575 1.893.575.793 0 1.424-.193 1.864-.57.447-.384.636-.907.636-1.43v-.047c0-.414.002-1.045-.33-1.559a1.656 1.656 0 0 0-.373-.41l.066-.054c.448-.384.637-.907.637-1.43v-.047c0-.414.001-1.045-.33-1.559-.38-.59-1.085-.894-2.17-.894-1.11 0-1.806.357-2.176.96Zm3.508 1.29c0 .69-.504 1.25-1.332 1.25-.828 0-1.3-.56-1.3-1.25S15.172 13 16 13c.828 0 1.332.56 1.332 1.25Zm0 3.5c0 .69-.503 1.25-1.332 1.25-.828 0-1.3-.56-1.3-1.25s.472-1.25 1.3-1.25c.829 0 1.332.56 1.332 1.25Z"/></svg>
